X:1 % 8
T:Ludler (1.)
C:traditionell
R:Jodler
A:Salzkammergut
B:"Pfeiermusik aus dem Salzkammergut", zus. A.Ruttner durch V.Derschmidt revidierte Ausgabe, Verlag E. Friedhuber, Wels, 2000, s.21
S:im buch mit der angabe: Aus der sammlung von Leopold Khals
N:im buch ganz in D, zweistimmig, erster ton:1.stimme: a', 2.stimme d''
Z:abc transcripton Simon Wascher
M:3/4
L:1/8
K:D 
V:1
P:1
(Ad) |\
(ce)c2(Ae) | (df)d2(df) | (g>f) (eA)(eA) | (df)d2(Ad) |\
(ce)c2(Ae) | (df)d2(df) | (g>f) (eA)(eA) | d2z2 :| 
V:2
K:D
(df) |\
(eg)e2(cg) | (fa)f2(fa) | (b>a) (gc)(gc) | (fa)f2(df) |\
(eg)e2(cg) | (fa)f2(fa) | (b>a) (gc)(ga) | f2z2 :|
